X: 118
%
U:~=!turn!
T: Comely Garden
C:Daniel Dow
O:Scotland
B:Keith Norman MacDonald : "The Skye collection of the best reels & strathspeys extant" : 1887
Z:Ralph Palmer
R:Reel
M:C
L:1/8
K:A
e | cA (c/2d/2e) a2 e=g | fd ~g2 BGGB | cA (c/2d/2e) a2 e=g | d=gBd eA A:| e | (c/2B/2A) eA ce-ea | =gdBG Bd-de |
(c/2B/2A) (.e.A) ce-e=g | d=gBd eAAe | (c/2B/2A) (.e.A) ce-ea | =gdBG Bd-de | (c/2B/2A) ae fd=gd | B=GBd eAA :]


